X:1
T:Vexilla Regis
T:Vexilla Regis
T:André Vierendeels André Vierendeels (08/09/10) 
C:André Vierendeels
C:André Vierendeels
C:(08/09/10)
C:
%%score [ 1 2 3 4 ]
L:1/8
Q:1/4=120
M:2/4
K:F
V:1 treble nm="Soprano" snm="S"
V:2 treble nm="Alto" snm="A"
V:3 treble-8 nm="Tenor" snm="T"
V:4 bass nm="Bass" snm="B"
V:1
 F4 |[M:2/2] G4 A2 B2 | A4 G4 | F4 E4 | !fermata!D4 G4 | G4 A4 | F4 D4 | E4 ^C4 | %8
w: Ve-|xil- la _|Re- gis|pro- de-|unt, ful-|get cru-|cis my-|ste- ri-|
w: Quae|vul- ne- *|ra- ta|lan- ce-|ae mu-|cro- ne|di- ro|cri- mi-|
w: Im-|ple- ta _|sunt quae|con- ci-|nit Da-|vid fi-|de- li|car- mi-|
w: Ar-|bor de- *|co- r'et|ful- gi-|da, or-|na- ta|Re- gis|pur- pu-|
w: Be-|a- ta, _|cu- jus|bra- chi-|is pre-|tium pe-|pen- dit|sae- cu-|
w: O|Crux a- *|ve, spes|u- ni-|ca, hoc|Pas- si-|o- nis|tem- po-|
w: Te,|fons sa- *|lu- tis|Tri- ni-|tas, col-|lau- det|o- mnis|spi- ri-|
 !fermata!D4 D2 E2 | F4 D4 | C4 F2 G2 | A4 G4 | !fermata!F4 A4 | G4 A4 | F4 D2 E2 | F4 E4 | %16
w: um, quo _|car- ne|car- nis _|con- di-|tor sus-|pen- sus|est pa- *|ti- bu-|
w: num, ut _|nos la-|ve- runt _|sor- di-|bus, ma-|na- vit|un- da et|san- gui-|
w: ne, di- *|cen- do|na- ti- *|o- ni-|bus: re-|gna- vit|a li- *|gno De-|
w: ra,- e- *|lec- ta|di- gno _|stu- pi-|te tam|san- cta|mem- bra _|tan- ge-|
w: li: sta- *|te- ra|fa- cta _|cor- po-|ris, tu-|lit- que|prae- dam _|tar- ta-|
w: re pi- *|is ad-|au- ge _|gra- ti-|am, Re-|is- que|de- le _|cri- mi-|
w: tus: qui- *|bus Cru-|cis vic- *|to- ri-|am lar-|gi- ris,|ad- de _|prae- mi-|
 !fermata!D8 |] %17
w: lo.|
w: ne.|
w: us.|
w: re.|
w: ri.|
w: na.|
w: um.|
V:2
 D4 |[M:2/2] E4 F4 | F2 ED C2 DE | C4 A,4 | !fermata!D4 D4 | D2 E2 F4 | D4 A4 | A4 E4 | %8
w: Ve-|xil- la|Re- * * gis _ _|pro- de-|unt, ful-|get _ cru-|cis my-|ste- ri-|
w: Quae|vul- ne-|ra- * * ta _ _|lan- ce-|ae mu-|cro- * ne|di- ro|cri- mi-|
w: Im-|ple- ta|sunt _ _ _ quae _|con- ci-|nit Da-|vid _ fi-|de- li|car- mi-|
w: Ar-|bor de-|co- * * ra et _|ful- gi-|da or-|na- * ta|Re- gis|pur- pu-|
w: Be-|a- ta|cu- * * jus _ _|bra- chi-|is pre|tium _ pe-|pen- dit|sae- cu-|
w: O|Crux a-|ve _ _ spes _ _|u- ni-|ca, hoc|pas- * si-|o- nis|tem- po-|
w: Te,|fons sa-|lu- * * tis _ _|Tri- ni-|tas, col-|lau- * det|o- mnis|spi- ri-|
 !fermata!F4 A4 | D4 B,2 D2 | E4 A,2 B,2 | C4 D2 E2 | !fermata!D4 C4 | D4 F4 | D2 C2 B,4 | %15
w: um, quo|car- ne _|car- nis _|con- di- *|tor sus-|pen- sus|est _ pa-|
w: num, ut|nos la- *|ve- runt _|sor- di- *|bus, ma-|na- vit|un- * da|
w: ne, di-|cen- do _|na- ti- *|o- ni- *|bus: re-|gna- vit|a _ li-|
w: ra, e-|jec- ta _|di- gno _|stu- pi- *|te tam|san- cta|mem- * bra|
w: li: sta-|te- ra _|fa- cta _|cor- po- *|ri, tu-|lit- que|prae- * dam|
w: re pi-|is ad- *|au- ge _|gra- ti- *|am, Re-|gis- que|de- * le|
w: tus: qui-|bus Cru- *|cis vic- *|to- ri- *|am lar-|gi- ris,|ad- * de|
 C2 D4 ^C2 | !fermata!A,8 |] %17
w: ti- * bu-|lo.|
w: san- * gui-|ne.|
w: gno _ De-|us.|
w: tan- * ge-|re.|
w: tar- * ta-|ri.|
w: cri- * mi-|na.|
w: prae- * mi-|um.|
V:3
 A4 |[M:2/2] c4 c2 d2 | d2 c4 G2 | A4 d2 ^c2 | !fermata!A4 B4 | G4 c4 | B4 FGAB | d2 cB A4 | %8
w: Ve-|xil- la _|Re- * gis|pro- de- *|unt, ful-|get cru-|cis my- * * *|ste- * * ri-|
w: Quae|vul- ne- *|ra- * ta|lan- ce- *|ae mu-|cro- ne|di- ro _ _ _|cri- * * mi-|
w: Im-|ple- ta _|sunt _ quae|con- ci- *|nit Da-|vid fi-|de- li _ _ _|car- * * mi-|
w: Ar-|bor de- *|co- ra et|ful- gi- *|da or-|na- ta|Re- gis _ _ _|pur- * * pu-|
w: Be-|a- ta _|cu- * jus|bra- chi- *|is pre|tium pe-|pen- dit _ _ _|sae- * * cu-|
w: O|Crux a- *|ve- * spes|u- ni- *|ca, hoc|pas- si-|o- nis _ _ _|tem- * * po-|
w: Te,|fons sa- *|lu- * tis|Tri- ni- *|tas, col-|lau- det|o- mnis _ _ _|spi- * * ri-|
 !fermata!A4 A4 | A4 F2 G2 | G4 F2 E2 | A4 B2 c2 | !fermata!A4 A2 c2 | c2 =B2 c4 | A4 G4 | A4 A4 | %16
w: um, quo|car- ne _|car- nis _|con- di- *|tor sus- *|pen- * sus|est pa-|ti- bu-|
w: um, ut|nos la- *|ve- runt _|sor- di- *|bus, ma- *|na- * vit|un- da|san- gui-|
w: ne, di-|cen- do _|na- ti _|o- ni- *|bus re- *|gna- * vit|a lin-|gno De-|
w: ra, e-|jec- ta _|di- gno _|stu- pi- *|te tam _|san- * cta|mem- bra|tan- ge-|
w: li: sta-|te- ra _|fa- cta- *|cor- po- *|ri, tu- *|lit- * que|prae- dam|tar- ta-|
w: re pi|is ad- *|au- ge _|gra- ti- *|am, Re- *|gis _ que|de- le|cri- mi-|
w: tus: qui-|bus Cru- *|cis vic- *|to- ri- *|am lar- *|gi- * ris,|ad- de|prae^- mi-|
 !fermata!F8 |] %17
w: lo.|
w: ne.|
w: us.|
w: re.|
w: ri.|
w: na.|
w: um.|
V:4
 D,4 |[M:2/2] C,4 F,2 B,,2 | D,2 A,2 E,4 | F,4 A,4 | !fermata!D,4 G,4 | B,,2 C,2 F,4 | B,,4 D,4 | %7
w: Ve-|xil- la _|Re- * gis|pro- de-|unt, ful-|get _ cru-|cis my-|
w: Quae|vul- ne- *|ra- * ta|lan- ce-|ae mu-|cro- * ne|di- ro|
w: Im-|ple- ta _|sunt _ quae|con- ci-|nit Da-|vid _ fi-|de- li|
w: Ar-|bor de- *|co- ra et|ful- gi-|da or-|na- * ta|Re- gis|
w: Be-|a- ta _|cu- * jus|bra- chi-|is pre|tum _ pe-|pen- dit|
w: O|Crux a- *|ve _ spes|u- ni-|ca, hoc|pas- * si-|o- nis|
w: Te,|fons sa- *|lu- * tis|Tri- ni-|tas, col-|lau- * det|o- mnis|
 A,4 A,,4 | !fermata!D,4 D,2 C,2 | D,4 B,,2 G,,2 | C,4 D,2 C,2 | F,4 G,4 | !fermata!D,4 F,4 | %13
w: ste- ri-|m, quo _|car- ne _|car- nis _|con- di-|tor sus-|
w: cri- mi-|num, ut _|nos la- *|ve- runt _|sor- i-|bus, ma-|
w: car- mi-|ne, di- *|cen do _|na- ti- *|o- ni-|bus e-|
w: pur- pu-|ra, e- *|jec- ta _|di- gno _|stu- pi-|te tam-|
w: sae- cu-|li: sta- *|te- ra _|fa- cta _|cor- po-|ri, tu-|
w: tem- po-|re pi- *|is ad- *|au- ge _|gra- ti-|am Re-|
w: spi- ri-|tus: qui- *|bus Cru- *|cis vic- *|to- ri-|am lar-|
 G,4 F,4 | D,2 F,2 G,2 C,2 | F,2 D,2 A,,4 | !fermata!D,8 |] %17
w: pen- sus|est _ pa- *|ti- * bu-|lo.|
w: na- vit|un- * da _|san- * gui-|ne.|
w: gna- vit|a _ li- *|gno _ De-|us.|
w: san- cta|mem- * bra _|tan- * ge-|re.|
w: lit- que|prae- * dam _|tar- * ta-|ri.|
w: gis- que|de- * le _|cri- * mi-|na.|
w: gi- ris|ad- * de _|prae- * mi-|um.|

